X: 10
T:Marcha procesional de San Benito
M:6/8
L:1/8
Q:100
R:Marcha
A:Galicia
N:Repertorio básic
K:C
ED |: C2"F."G C2E | G6 | A4 Bc | !
"a partir de aqui esta mal: hay que pasarlo todo a 6/8"
ED |: C2"F."G2 C3E | G8 | A6 Bc| G4 E2"F."c2 | E4 (3C2D2E2| 
D8| G3F E3D | C4 C3C |  C6 ED
C6  ED | C4 C3E | G8| A6 Bc | G4 E4 | E4 (3D2E2D2 | C4 C3C |1 C6 ED :|2
C8 |:
 E8 | C4 (3D2C2D2 | E8 | C4 C4 | D8 | B,4 (3B,2C2D2 | E4
(3F2E2D2| C8 | E8 | C4 (3C2D2E2| F8 | 
D4 (3D2E2F2| E4 (3C2D2E2| D4 (3B,2C2D2| C4 C3C |1C8 :|2 C6 E"D.C."D ||

